!!!ONB: MCCC : ILB0190_02 : Extracted Monophonic Melody
!!!COM: Beethoven, Ludwig van
!!!OPR: Piano Sonata No.29
!!!OMV: 2
!!!SCT: Op.106
!!!ODT: 1817///
**kern
*thru
*staff1
*clefG2
*Ipiano
*k[b-e-]
*B-:
*M3/4
*MM240
8.dd
16ff
=1
4ff
8dd
8r
8.b-
16dd
=2
4dd
8b-
8r
8.g
16b-
=3
4b-
8g
8r
8.g
16a
=4
4a
8b-
8r
8.b-
16cc
=5
4cc
8dd
8r
8.dd
16ee-
=6
4ee-
8ff
8r
8gg
8r
=7
8cc
8r
4r
8.ddd
16fff
=8
4fff
8ddd
8r
8.bb-
16ddd
=9
4ddd
8bb-
8r
8.gg
16bb-
=10
4bb-
8gg
8r
8.gg
16aa
=11
4aa
8bb-
8r
8.bb-
16ccc
=12
4ccc
8ddd
8r
8.eee-
16eee
=13
4eee
8fff
8r
8ggg
8r
=14
8fff
8r
4r
8.dd
16ff
=15
4ff
8dd
8r
8.dd
16gg
=16
4gg
8ee-
8r
8.cc
16ee-
=17
4ee-
8cc
8r
8.cc
16ff
=18
4ff
8dd
8r
8.c
16e-
=19
2e-
4d
=20
4c
4B-
4A[
=21
4A]
4G
4c[
=22
4c]
4B
4r
=23
4r
4r
8.B
16d
=24
4d
8B
8r
8.b
16dd
=25
4dd
8b
8r
8.ccc
16eee-
=26
4eee-
8ccc
8r
8.b
16dd
=27
4dd
8b
8r
8.b
16ee-
=28
4ee-
8cc
8r
8.cc
16aa
=29
4aa
8ff
8r
8bb-
8r
=30
8bb-
8r
4r
8.ddd
16fff
=31
4fff
8ddd
8r
8.ddd
16ggg
=32
4ggg
8eee-
8r
8.ccc
16eee-
=33
4eee-
8ccc
8r
8.ccc
16fff
=34
4fff
8ddd
8r
8.cc
16ee-
=35
2ee-
4dd
=36
4cc
4b-
4a
=37
4a
4g
4cc[
=38
4cc]
4b
4r
=39
4r
4r
8.b
16dd
=40
4dd
8b
8r
8.bb
16ddd
=41
4ddd
8bb
8r
8.cc
16ee-
=42
4ee-
8cc
8r
8.bb
16ddd
=43
4ddd
8bb
8r
8.bb
16eee-
=44
4eee-
8ccc
8r
8.ccc
16aaa
=45
4aaa
8fff
8r
8bbb-
8r
=46
8bbb-
8r
4r
*k[b-e-a-d-g-]
[4ddd-
=47
4ddd-]
4fff
[4ddd-
=48
4ddd-]
4bb-
4ff
=49
2bb-
4ddd-
=50
2fff
4ddd-
=51
2bb-
4ff
=52
2bb-
4ddd-
=53
2fff
4aaa-
=54
4ddd-
4r
8bb-
8r
=55
8bb-
8r
4r
12dd-
12b-
12f
=56
12dd-
12b-
12f
12ff
12dd-
12b-
12dd-
12b-
12f
=57
12dd-
12b-
12f
12b-
12f
12d-
12f
12d-
12B-
=58
12b-
12B-
12d-
12b-
12d-
12B-
12dd-
12d-
12f
=59
12ff
12dd-
12b-
12ff
12dd-
12b-
12dd-
12b-
12f
=60
12b-
12f
12d-
12b-
12f
12d-
12f
12d-
12B-
=61
12a-
12A-
12d-
12a-
12f
12d-
12dd-
12d-
12f
=62
12ff
12dd-
12a-
12ff
12dd-
12a-
12aa-
12ff
12dd-
=63
4dd-
4r
[4fff
=64
4fff]
4aaa-
[4fff
=65
4fff]
4ddd-
4aa-
=66
2ddd-
4fff
=67
2aaa-
4fff
=68
2ddd-
4bb-
=69
2ff
4bb-
=70
2ddd-
4fff
=71
4bb-
4r
8dd-
8r
=72
8dd-
8r
12d-
12f
12dd-
12ff
12dd-
12a-
=73
12ff
12dd-
12a-
12aa-
12dd-
12a-
12ff
12dd-
12a-
=74
12ff
12dd-
12a-
12dd-
12a-
12f
12a-
12A-
12d-
=75
12dd-
12d-
12f
12dd-
12a-
12f
12ff
12dd-
12a-
=76
12aa-
12ff
12dd-
12ff
12dd-
12ff
12ff
12dd-
12f
=77
12dd-
12b-
12f
12dd-
12b-
12f
12b-
12f
12d-
=78
12f
12d-
12B-
12f
12d-
12B-
12b-
12B-
12d-
=79
12dd-
12b-
12f
12dd-
12b-
12f
12ff
12dd-
12f
=80
4b-
4r
4r
=81
*M2/4
8b-
8r
8dd-
8r
=82
8cc
8r
8f
8r
=83
8ff
8r
8ee-
8r
=84
8dd-
8r
8cc
8r
=85
8b-
8r
8dd-
8r
=86
8cc
8r
8a-
8r
=87
8cc
8r
8g
8r
=88
2f
=89
8r
8cc
8r
8cc
=90
8r
8cc
8r
8cc
=91
8r
8cc
8r
8cc
=92
8r
8cc
8r
8cc
=93
8r
8cc
8r
8ff
=94
8r
8ff
8r
8ee
=95
8r
8ff
8r
8ee-
=96
8r
8dd-
8r
8cc
=97
8bb-
8r
8ddd-
8r
=98
8ccc
8r
8ff
8r
=99
8fff
8r
8eee-
8r
=100
8ddd-
8r
8ccc
8r
=101
8bb-
8r
8ddd-
8r
=102
8ccc
8r
8ff
8r
=103
8fff
8r
8ddd-
8r
=104
2ccc
=105
8fff
8r
8ddd-
8r
=106
2ccc
=107
*k[b-e-]
2cc
=108
2c
=109
2C
=110
[2CC
=111
2CC]
=112
4CC
4r
=113
4r
12FF
12GG
12AA
=114
16BB-
16C
16D
16E
4r
=115
4r
12f
12g
12a
=116
16b-
16cc
16dd
16ee
4r
=117
4r
12ff
12gg
12aa
=118
16bb-
16ccc
16ddd
16eee
8fff
8r
=119
*M3/4
4r
4r
16gg-
16a
16gg-
16a
=120
16gg-
16a
16gg-
16a
16gg-
16a
16gg-
16a
4r
=121
4r
4r
8.dd
16ff
=122
4ff
8dd
8r
8.b-
16dd
=123
4dd
8b-
8r
8.g
16b-
=124
4b-
8g
8r
8.g
16a
=125
4a
8b-
8r
8.b-
16cc
=126
4cc
8dd
8r
8.dd
16ee-
=127
4ee-
8ff
8r
8gg
8r
=128
8cc
8r
4r
8.ddd
16fff
=129
4fff
8ddd
8r
8.bb-
16ddd
=130
4ddd
8bb-
8r
8.gg
16bb-
=131
4bb-
8gg
8r
8.gg
16aa
=132
4aa
8bb-
8r
8.bb-
16ccc
=133
4ccc
8ddd
8r
8.eee-
16eee
=134
4eee
8fff
8r
8ggg
8r
=135
8fff
8r
4r
8.dd
16ff
=136
4ff
8dd
8r
8.dd
16gg
=137
4gg
8ee-
8r
8.cc
16ee-
=138
4ee-
8cc
8r
8.cc
16ff
=139
4ff
8dd
8r
8.c
16e-
=140
2e-
4d
=141
4c
4B-
4A[
=142
4A]
4G
4c[
=143
4c]
4B
4r
=144
4r
4r
8.B
16d
=145
4d
8B
8r
8.b
16dd
=146
4dd
8b
4.r
=147
4eee-
8ccc
8r
8.b
16dd
=148
4dd
8b
8r
8.b
16ee-
=149
4ee-
8cc
8r
8.cc
16aa
=150
4aa
8ff
8r
8bb-
8r
=151
8bb-
8r
4r
8.ddd
16fff
=152
4fff
8ddd
8r
8.ddd
16ggg
=153
4ggg
8eee-
8r
8.ccc
16eee-
=154
4eee-
8ccc
8r
8.ccc
16fff
=155
4fff
8ddd
8r
8.cc
16ee-
=156
2ee-
4dd
=157
4cc
4b-
4a[
=158
4a]
4g
4cc[
=159
4cc]
4b
4r
=160
4r
4r
8.b
16dd
=161
4dd
8b
8r
8.B
16d
=162
4d
8B
8r
8.ccc
16eee-
=163
4eee-
8ccc
8r
8.bb
16ddd
=164
4ddd
8bb
8r
8.bb
16eee-
=165
4eee-
8ccc
8r
8.ccc
16aaa
=166
4aaa
8fff
8r
8bbb-
8r
=167
8bbb-
8r
4r
8b
8r
=168
8b
8r
4r
8bbb-
8r
=169
8bbb-
8r
4r
8b
8r
=170
8b
8r
4r
8a#
8r
=171
8a#
8r
4r
8.d
16f#
=172
4f#
8d
8r
8b
8r
=173
8b
8r
4r
8b
8r
=174
8b
8r
4r
8b
8r
=175
*k[]
*M4/4
4b
4b
4b
4b
=176
4b
4bb
4bb
4bb
=177
4bb
4bbb
4bbb
4bbb
=178
4bbb
4bbb
4bbb
8bbb-
8r
=179
*k[b-e-]
*M3/4
8bbb-
8r
4r
8.d
16f
=180
4f
8d
8r
8.dd
16ff
=181
4ff
8dd
8r
8.ddd
16fff
=182
4fff
8ddd
8r
==
*-
